svg/greenhouse.svg

<?xml version="1.0" encoding="UTF-8"?><!DOCTYPE svg PUBLIC "-//W3C//DTD SVG 1.1//EN" "http://www.w3.org/Graphics/SVG/1.1/DTD/svg11.dtd"><svg xmlns="http://www.w3.org/2000/svg" xmlns:xlink="http://www.w3.org/1999/xlink" version="1.1" id="mdi-greenhouse" width="24" height="24" viewBox="0 0 24 24"><path d="M12,3L4,9v12h16V9L12,3z M10,10h4v9h-4V10z M16,10h2v3h-2V10z M15.333,8H8.667L12,5.5L15.333,8z M8,10v3H6v-3H8z M6,15h2v4tH6V15z M16,19v-4h2v4H16z" /></svg>

<?xml version="1.0" encoding="UTF-8"?><!DOCTYPE svg PUBLIC "-//W3C//DTD SVG 1.1//EN" "http://www.w3.org/Graphics/SVG/1.1/DTD/svg11.dtd"><svg xmlns="http://www.w3.org/2000/svg" xmlns:xlink="http://www.w3.org/1999/xlink" version="1.1" id="mdi-greenhouse" width="24" height="24" viewBox="0 0 24 24"><path d="M12 3L4 9V21H20V9L12 3M10 10H14V19H10V10M16 10H18V13H16V10M15.33 8H8.67L12 5.5L15.33 8M8 10V13H6V10H8M6 15H8V19H6V15M16 19V15H18V19H16Z" /></svg>
